cached_logos/open-stack.svg

<?xml version="1.0" encoding="UTF-8"?>
<svg   viewBox="-9.399999999999977 -4.539999999999992 488.8 236.08" version="1.1" xmlns="http://www.w3.org/2000/svg" xmlns:xlink="http://www.w3.org/1999/xlink">
    <!-- Generator: Sketch 41.1 (35376) - http://www.bohemiancoding.com/sketch -->
    <title>OpenStack_Logo2016</title>
    <desc>Created with Sketch.</desc>
    <defs></defs>
    <g id="Page-1" stroke="none" stroke-width="1" fill="none" fill-rule="evenodd">
        <g id="OpenStack_Logo2016">
            <path d="M462.3616,208.918 C459.4656,208.918 457.1096,206.562 457.1096,203.666 C457.1096,200.769 459.4656,198.414 462.3616,198.414 C465.2576,198.414 467.6136,200.769 467.6136,203.666 C467.6136,206.562 465.2576,208.918 462.3616,208.918 M469.3246,203.666 C469.3246,199.826 466.2016,196.702 462.3616,196.702 C458.5216,196.702 455.3986,199.826 455.3986,203.666 C455.3986,207.506 458.5216,210.629 462.3616,210.629 C466.2016,210.629 469.3246,207.506 469.3246,203.666" id="Fill-1" fill="#4D453F"></path>
            <path d="M463.5502,202.4427 C463.5502,203.0567 463.1602,203.4667 462.4382,203.4667 L461.3962,203.4667 L461.3962,201.4087 L462.4092,201.4087 C463.1312,201.4087 463.5502,201.7507 463.5502,202.4327 L463.5502,202.4427 Z M464.9742,202.4037 L464.9742,202.3647 C464.9742,201.6917 464.7692,201.1557 464.3982,200.7847 C463.9692,200.3567 463.3362,200.1327 462.5462,200.1327 L459.9832,200.1327 L459.9832,206.9557 L461.3962,206.9557 L461.3962,204.7137 L462.2822,204.7137 L463.5402,206.9557 L465.1592,206.9557 L463.7062,204.4207 C464.4572,204.0897 464.9742,203.4367 464.9742,202.4037 L464.9742,202.4037 Z" id="Fill-3" fill="#4D453F"></path>
            <path d="M11.857,183.1381 L11.857,182.5091 C11.857,172.1191 17.209,164.4611 25.498,164.4611 C33.577,164.4611 39.349,172.2261 39.349,182.6131 L39.349,183.2431 C39.349,193.6301 33.997,201.3951 25.708,201.3951 C17.628,201.3951 11.857,193.5261 11.857,183.1381 M51.205,183.3471 L51.205,182.4021 C51.205,165.9281 40.398,153.9671 25.708,153.9671 C10.912,153.9671 0,166.1391 0,182.5091 L0,183.4521 C0,199.9261 10.808,211.7831 25.498,211.7831 C40.293,211.7831 51.205,199.7171 51.205,183.3471" id="Fill-5" fill="#4D453F"></path>
            <path d="M69.5609,183.3472 L69.5609,182.2982 C69.5609,171.3852 75.6469,164.4612 82.7819,164.4612 C89.9169,164.4612 95.6879,171.2812 95.6879,182.4022 L95.6879,183.3472 C95.6879,194.4702 90.0219,201.1862 82.7819,201.1862 C75.6469,201.1862 69.5609,194.2592 69.5609,183.3472 M107.6509,183.5582 L107.6509,182.0892 C107.6509,163.3052 97.1569,153.9672 86.0349,153.9672 C78.0599,153.9672 73.2329,158.5842 69.7709,163.9362 L69.7709,155.0162 L57.9139,155.0162 L57.9139,226.4742 L69.7709,226.4742 L69.7709,202.2352 C73.1289,207.1662 77.9559,211.6782 86.0349,211.6782 C97.2619,211.6782 107.6509,202.2352 107.6509,183.5582" id="Fill-7" fill="#4D453F"></path>
            <path d="M137.8322,163.9364 C144.7572,163.9364 148.7442,170.3364 149.3742,179.1504 L125.8702,179.1504 C126.7102,169.7074 131.3272,163.9364 137.8322,163.9364 M159.0282,203.1804 L152.8372,195.8334 C149.1642,199.4014 145.2822,201.7104 140.0362,201.7104 C132.7962,201.7104 127.0242,196.6734 125.9752,187.3354 L160.8112,187.3354 C160.9162,185.6564 160.9162,183.9764 160.9162,183.2424 C160.9162,166.5594 152.9422,153.9664 137.8322,153.9664 C124.1912,153.9664 114.1182,165.9284 114.1182,182.6134 L114.1182,183.4514 C114.1182,200.8704 125.2402,211.7824 139.5112,211.7824 C147.8012,211.7824 153.9912,208.5304 159.0282,203.1804" id="Fill-10" fill="#4D453F"></path>
            <path d="M195.7337,153.9669 C188.1787,153.9669 183.6667,158.2699 180.5187,163.2009 L180.5187,155.0159 L168.6617,155.0159 L168.6617,210.6289 L180.5187,210.6289 L180.5187,176.9469 C180.5187,169.2869 184.8217,164.6699 191.0117,164.6699 C197.3077,164.6699 200.9797,168.9719 200.9797,176.7359 L200.9797,210.6289 L212.8367,210.6289 L212.8367,173.3799 C212.8367,161.5229 206.4357,153.9669 195.7337,153.9669" id="Fill-12" fill="#4D453F"></path>
            <path d="M260.6326,194.7842 L260.6326,194.6792 C260.6326,185.9702 254.1266,181.9842 245.5226,178.1012 C239.0166,175.1622 234.6096,173.2752 234.6096,169.6022 L234.6096,169.3912 C234.6096,166.3482 237.2326,163.9362 241.6396,163.9362 C246.0466,163.9362 250.6636,166.0352 254.8606,168.8672 L259.8976,160.1582 C254.6516,156.3812 248.0406,154.1782 241.8496,154.1782 C231.4626,154.1782 223.4876,160.4732 223.4876,170.4412 L223.4876,170.6522 C223.4876,179.7792 230.4126,183.5582 238.7026,187.1242 C245.3126,189.9582 249.6146,191.7412 249.6146,195.7292 L249.6146,195.8332 C249.6146,199.2962 246.7816,201.9202 241.8496,201.9202 C236.9186,201.9202 231.5666,199.5062 226.5306,195.4152 L220.9686,203.9132 C227.3696,209.2642 235.0296,211.6782 241.6396,211.6782 C252.3436,211.6782 260.6326,205.6962 260.6326,194.7842" id="Fill-14" fill="#4D453F"></path>
            <path d="M297.3471,209.0552 L297.3471,199.2962 C295.3531,200.3462 293.2551,200.8702 290.9461,200.8702 C287.1681,200.8702 284.9651,199.0872 284.9651,194.7842 L284.9651,165.1942 L297.4521,165.1942 L297.4521,155.0162 L284.9651,155.0162 L284.9651,140.0112 L273.1081,140.0112 L273.1081,155.0162 L267.0221,155.0162 L268.9701,165.1942 L273.1081,165.1942 L273.1081,197.1982 C273.1081,208.0062 279.2991,211.4692 287.4841,211.4692 C291.4711,211.4692 294.6181,210.5242 297.3471,209.0552" id="Fill-16" fill="#4D453F"></path>
            <path d="M336.9027,191.952 C336.9027,198.247 331.6567,202.864 324.8357,202.76 C319.6947,202.655 315.8127,199.506 315.8127,193.946 L315.8127,193.735 C315.8127,187.86 319.7997,184.396 326.6197,184.396 C330.6077,184.396 334.1747,185.237 336.9027,186.39 L336.9027,191.952 Z M342.7787,160.053 C339.2117,156.381 333.6507,154.387 326.4107,154.387 C318.9607,154.387 313.3987,156.172 308.0467,158.795 L311.4047,168.238 C315.0777,166.559 319.4847,164.879 324.8357,164.879 C332.3917,164.879 336.7977,168.762 336.7977,176.212 L336.7977,178.521 C333.0207,177.261 329.2437,176.318 323.9967,176.318 C312.2447,176.318 304.2697,182.193 304.2697,194.155 L304.2697,194.68 C304.2697,205.487 312.0347,211.678 321.2687,211.678 C328.5087,211.678 333.4407,208.531 336.6927,203.809 L336.6927,210.629 L348.3397,210.629 L348.3397,176.107 C348.3397,169.183 346.4517,163.725 342.7787,160.053 L342.7787,160.053 Z" id="Fill-18" fill="#4D453F"></path>
            <path d="M398.7416,203.389 L392.3416,195.52 C389.0886,198.772 385.8356,201.186 381.0096,201.186 C372.9286,201.186 367.2636,193.946 367.2636,183.138 L367.2636,182.613 C367.2636,172.119 372.9286,164.67 380.6946,164.67 C385.7306,164.67 388.9836,167.189 391.9216,170.232 L398.5326,161.522 C393.9156,156.905 388.6686,153.967 380.6946,153.967 C366.1086,153.967 355.3016,165.928 355.3016,182.509 L355.3016,183.558 C355.3016,200.137 365.7946,211.783 380.2746,211.783 C388.7736,211.783 394.3346,208.321 398.7416,203.389" id="Fill-20" fill="#4D453F"></path>
            <polygon id="Fill-22" fill="#4D453F" points="435.0334 181.7647 426.7104 190.7107 437.8744 210.6287 451.6194 210.6287"></polygon>
            <polygon id="Fill-24" fill="#4D453F" points="437.0338 155.0161 418.0418 179.4661 418.0418 134.8701 406.1848 134.8701 406.1848 210.6291 418.0418 210.6291 418.0418 194.5751 451.0948 155.0161"></polygon>
            <path d="M274.2093,0.0002 L179.5713,0.0002 C173.6313,0.0002 168.7713,4.8602 168.7713,10.8002 L168.7713,36.2502 L195.0213,36.2502 L195.0213,32.0912 C195.0213,28.8652 197.6373,26.2502 200.8633,26.2502 L252.9183,26.2502 C256.1443,26.2502 258.7593,28.8652 258.7593,32.0912 L258.7593,36.2502 L285.0093,36.2502 L285.0093,10.8002 C285.0093,4.8602 280.1493,0.0002 274.2093,0.0002 Z" id="Fill-26" fill="#ED1844"></path>
            <path d="M258.7594,81.67 C258.7594,84.896 256.1444,87.512 252.9184,87.512 L200.8634,87.512 C197.6374,87.512 195.0214,84.896 195.0214,81.67 L195.0214,77.512 L168.7714,77.512 L168.7714,102.961 C168.7714,108.902 173.6314,113.761 179.5714,113.761 L274.2094,113.761 C280.1494,113.761 285.0094,108.902 285.0094,102.961 L285.0094,77.512 L258.7594,77.512 L258.7594,81.67 Z" id="Fill-28" fill="#ED1844"></path>
            <polygon id="Clip-31" points="0 226.474 469.325 226.474 469.325 -1.13686838e-13 0 -1.13686838e-13"></polygon>
            <polygon id="Fill-30" fill="#ED1844" points="168.772 70.006 195.022 70.006 195.022 43.756 168.772 43.756"></polygon>
            <polygon id="Fill-32" fill="#ED1844" points="258.759 70.006 285.009 70.006 285.009 43.756 258.759 43.756"></polygon>
        </g>
    </g>
</svg>

<svg xmlns="http://www.w3.org/2000/svg" role="img" viewBox="-9.38 -9.38 487.76 244.76"><title>OpenStack logo</title><g fill="none" fill-rule="evenodd"><g><path fill="#4D453F" d="M462.362 208.918a5.258 5.258 0 0 1-5.252-5.252 5.257 5.257 0 0 1 5.252-5.252 5.257 5.257 0 0 1 5.252 5.252 5.258 5.258 0 0 1-5.252 5.252m6.963-5.252a6.971 6.971 0 0 0-6.963-6.964 6.971 6.971 0 0 0-6.963 6.964 6.97 6.97 0 0 0 6.963 6.963 6.97 6.97 0 0 0 6.963-6.963"/><path fill="#4D453F" d="M463.55 202.443c0 .614-.39 1.024-1.112 1.024h-1.042v-2.058h1.013c.722 0 1.141.342 1.141 1.024v.01zm1.424-.04v-.038c0-.673-.205-1.21-.576-1.58-.429-.428-1.062-.652-1.852-.652h-2.563v6.823h1.413v-2.242h.886l1.258 2.242h1.62l-1.454-2.535c.751-.331 1.268-.984 1.268-2.017zM11.857 183.138v-.629c0-10.39 5.352-18.048 13.641-18.048 8.079 0 13.851 7.765 13.851 18.152v.63c0 10.387-5.352 18.152-13.641 18.152-8.08 0-13.851-7.869-13.851-18.257m39.348.21v-.946c0-16.474-10.807-28.435-25.497-28.435C10.912 153.967 0 166.14 0 182.51v.943c0 16.474 10.808 28.331 25.498 28.331 14.795 0 25.707-12.066 25.707-28.436m18.355-.001v-1.049c0-10.913 6.087-17.837 13.222-17.837s12.906 6.82 12.906 17.941v.945c0 11.123-5.666 17.84-12.906 17.84-7.135 0-13.221-6.928-13.221-17.84m38.09.211v-1.469c0-18.784-10.494-28.122-21.616-28.122-7.975 0-12.802 4.617-16.264 9.97v-8.92H57.914v71.457H69.77v-24.239c3.358 4.931 8.185 9.443 16.264 9.443 11.227 0 21.616-9.443 21.616-28.12m30.182-19.622c6.925 0 10.912 6.4 11.542 15.214H125.87c.84-9.443 5.457-15.214 11.962-15.214m21.196 39.244l-6.19-7.347c-3.674 3.568-7.556 5.877-12.802 5.877-7.24 0-13.012-5.037-14.06-14.375h34.835c.105-1.679.105-3.359.105-4.093 0-16.683-7.974-29.276-23.084-29.276-13.64 0-23.714 11.962-23.714 28.647v.838c0 17.42 11.122 28.331 25.393 28.331 8.29 0 14.48-3.252 19.517-8.602m36.706-49.213c-7.555 0-12.067 4.303-15.215 9.234v-8.185h-11.857v55.613h11.857v-33.682c0-7.66 4.303-12.277 10.493-12.277 6.296 0 9.968 4.302 9.968 12.066v33.893h11.857v-37.25c0-11.856-6.401-19.412-17.103-19.412m64.899 40.817v-.105c0-8.709-6.506-12.695-15.11-16.578-6.506-2.939-10.913-4.826-10.913-8.499v-.21c0-3.044 2.623-5.456 7.03-5.456s9.024 2.1 13.22 4.931l5.038-8.709c-5.246-3.777-11.857-5.98-18.048-5.98-10.387 0-18.362 6.295-18.362 16.263v.211c0 9.127 6.925 12.906 15.215 16.472 6.61 2.834 10.912 4.617 10.912 8.605v.104c0 3.463-2.833 6.087-7.765 6.087-4.931 0-10.283-2.414-15.32-6.505l-5.561 8.498c6.4 5.351 14.06 7.765 20.67 7.765 10.705 0 18.994-5.982 18.994-16.894m36.714 14.271v-9.759c-1.994 1.05-4.092 1.574-6.4 1.574-3.779 0-5.982-1.783-5.982-6.086v-29.59h12.487v-10.178h-12.487v-15.005h-11.857v15.005h-6.086l1.948 10.178h4.138v32.004c0 10.808 6.191 14.271 14.376 14.271 3.987 0 7.134-.945 9.863-2.414m39.556-17.103c0 6.295-5.246 10.912-12.067 10.808-5.141-.105-9.023-3.254-9.023-8.814v-.211c0-5.875 3.987-9.339 10.807-9.339 3.988 0 7.555.841 10.283 1.994v5.562zm5.876-31.899c-3.567-3.672-9.128-5.666-16.368-5.666-7.45 0-13.012 1.785-18.364 4.408l3.358 9.443c3.673-1.679 8.08-3.359 13.43-3.359 7.557 0 11.963 3.883 11.963 11.333v2.309c-3.777-1.26-7.554-2.203-12.801-2.203-11.752 0-19.727 5.875-19.727 17.837v.525c0 10.807 7.765 16.998 16.999 16.998 7.24 0 12.172-3.147 15.424-7.869v6.82h11.647v-34.522c0-6.924-1.888-12.382-5.561-16.054zm55.963 43.336l-6.4-7.869c-3.253 3.252-6.506 5.666-11.332 5.666-8.081 0-13.746-7.24-13.746-18.048v-.525c0-10.494 5.665-17.943 13.43-17.943 5.037 0 8.29 2.519 11.228 5.562l6.61-8.71c-4.616-4.617-9.863-7.555-17.837-7.555-14.586 0-25.393 11.961-25.393 28.542v1.049c0 16.579 10.493 28.225 24.973 28.225 8.499 0 14.06-3.462 18.467-8.394m36.291-21.624l-8.323 8.946 11.164 19.918h13.745z"/><path fill="#4D453F" d="M437.034 155.016l-18.992 24.45V134.87h-11.857v75.759h11.857v-16.054l33.053-39.559z"/><path fill="#ED1844" d="M274.21 0h-94.64c-5.94 0-10.8 4.86-10.8 10.8v25.45h26.25v-4.159a5.842 5.842 0 0 1 5.842-5.84h52.055a5.84 5.84 0 0 1 5.841 5.84v4.16h26.25V10.8c0-5.94-4.86-10.8-10.8-10.8zm-15.45 81.67a5.842 5.842 0 0 1-5.842 5.842h-52.055a5.843 5.843 0 0 1-5.842-5.842v-4.158h-26.25v25.449c0 5.941 4.86 10.8 10.8 10.8h94.638c5.94 0 10.8-4.859 10.8-10.8V77.512h-26.25v4.158z"/><path d="M0 226.474h469.325V0H0z"/><path fill="#ED1844" d="M168.772 70.006h26.25v-26.25h-26.25zm89.987 0h26.25v-26.25h-26.25z"/></g></g></svg>
